X: 6
T: The Green Fields Of Rossbeigh
R: reel
M: 4/4
L: 1/8
K: Edor
A|:BE~E2 BAFB|ABde fded|BE~E2 BAFA|BFAF DEFA|~B2 [d B][B d] BAFB|[A D]Bde fded|BE~E2 BAFA|BFAF E3:||:(3Bcd ef g2fe|dB~B2 dBAF|(3Bcd e[f d] gefe|dBAF E2ef|~g3a gfeg|~f3g fedB|ABde fdec|dBAF E2FA:|


Tune 322	Setting 13094

